places/64/folder-publicshare.svg

<?xml version="1.0" encoding="UTF-8" standalone="no"?>
<svg
   xmlns:dc="http://purl.org/dc/elements/1.1/"
   xmlns:cc="http://creativecommons.org/ns#"
   xmlns:rdf="http://www.w3.org/1999/02/22-rdf-syntax-ns#"
   xmlns:svg="http://www.w3.org/2000/svg"
   xmlns="http://www.w3.org/2000/svg"
   xmlns:xlink="http://www.w3.org/1999/xlink"
   version="1.1"
   width="64"
   height="64"
   id="svg25818">
  <defs
     id="defs25820">
    <linearGradient
       x1="97.538795"
       y1="16.962049"
       x2="97.538795"
       y2="44.260689"
       id="linearGradient6389"
       xlink:href="#linearGradient8272-8-8"
       gradientUnits="userSpaceOnUse"
       gradientTransform="matrix(1.3210282,0,0,1.2679796,-70.729881,0.17381009)" />
    <linearGradient
       id="linearGradient8272-8-8">
      <stop
         id="stop8274-4"
         style="stop-color:#ffffff;stop-opacity:1"
         offset="0" />
      <stop
         id="stop8276-5"
         style="stop-color:#ffffff;stop-opacity:0.23529412"
         offset="0.0221225" />
      <stop
         id="stop8278-0"
         style="stop-color:#ffffff;stop-opacity:0.15686275"
         offset="0.97909725" />
      <stop
         id="stop8280-5-9"
         style="stop-color:#ffffff;stop-opacity:0.39215687"
         offset="1" />
    </linearGradient>
    <linearGradient
       x1="22.934725"
       y1="49.629246"
       x2="22.809399"
       y2="36.657963"
       id="linearGradient6393"
       xlink:href="#linearGradient6129-963-697-142-998-580-273-9"
       gradientUnits="userSpaceOnUse"
       gradientTransform="matrix(1.5432898,0,0,1.3103449,-5.0382913,0.34483009)" />
    <linearGradient
       id="linearGradient6129-963-697-142-998-580-273-9">
      <stop
         id="stop2661-3"
         style="stop-color:#0a0a0a;stop-opacity:0.498"
         offset="0" />
      <stop
         id="stop2663-33"
         style="stop-color:#0a0a0a;stop-opacity:0"
         offset="1" />
    </linearGradient>
    <linearGradient
       x1="-91"
       y1="43.999817"
       x2="-91"
       y2="119.05979"
       id="linearGradient6397"
       xlink:href="#linearGradient4632-0-6-4-4-4"
       gradientUnits="userSpaceOnUse"
       gradientTransform="matrix(0.50413225,0,0,0.49333391,73.843636,-1.4532899)" />
    <linearGradient
       id="linearGradient4632-0-6-4-4-4">
      <stop
         id="stop4634-4-4-7-4"
         style="stop-color:#b4cee1;stop-opacity:1"
         offset="0" />
      <stop
         id="stop4636-3-1-5-9"
         style="stop-color:#5d9fcd;stop-opacity:1"
         offset="1" />
    </linearGradient>
    <radialGradient
       cx="605.71429"
       cy="486.64789"
       r="117.14286"
       fx="605.71429"
       fy="486.64789"
       id="radialGradient6403"
       xlink:href="#linearGradient5060-820-8"
       gradientUnits="userSpaceOnUse"
       gradientTransform="matrix(-0.04016195,0,0,0.0329426,30.204676,40.92132)" />
    <linearGradient
       id="linearGradient5060-820-8">
      <stop
         id="stop2681-37"
         style="stop-color:#000000;stop-opacity:1"
         offset="0" />
      <stop
         id="stop2683-05"
         style="stop-color:#000000;stop-opacity:0"
         offset="1" />
    </linearGradient>
    <linearGradient
       x1="302.85715"
       y1="366.64789"
       x2="302.85715"
       y2="609.50507"
       id="linearGradient6407"
       xlink:href="#linearGradient5048-585-1"
       gradientUnits="userSpaceOnUse"
       gradientTransform="matrix(0.1076923,0,0,0.03294117,-6.9224113,40.92219)" />
    <linearGradient
       id="linearGradient5048-585-1">
      <stop
         id="stop2667-0"
         style="stop-color:#000000;stop-opacity:0"
         offset="0" />
      <stop
         id="stop2669-91"
         style="stop-color:#000000;stop-opacity:1"
         offset="0.5" />
      <stop
         id="stop2671-6"
         style="stop-color:#000000;stop-opacity:0"
         offset="1" />
    </linearGradient>
    <radialGradient
       cx="605.71429"
       cy="486.64789"
       r="117.14286"
       fx="605.71429"
       fy="486.64789"
       id="radialGradient6411"
       xlink:href="#linearGradient5060-820-8"
       gradientUnits="userSpaceOnUse"
       gradientTransform="matrix(0.04016195,0,0,0.0329426,33.796646,40.92132)" />
    <linearGradient
       x1="97.538795"
       y1="8.8103228"
       x2="97.538795"
       y2="44.260689"
       id="linearGradient6415"
       xlink:href="#linearGradient9235-9"
       gradientUnits="userSpaceOnUse"
       gradientTransform="matrix(1.2749674,0,0,1.218292,-67.158521,-0.33920991)" />
    <linearGradient
       id="linearGradient9235-9">
      <stop
         id="stop9237-7"
         style="stop-color:#ffffff;stop-opacity:1"
         offset="0" />
      <stop
         id="stop9239-2-3"
         style="stop-color:#ffffff;stop-opacity:0.23529412"
         offset="0.1088333" />
      <stop
         id="stop9241-1"
         style="stop-color:#ffffff;stop-opacity:0.15686275"
         offset="0.97909725" />
      <stop
         id="stop9243-5"
         style="stop-color:#ffffff;stop-opacity:0.39215687"
         offset="1" />
    </linearGradient>
    <linearGradient
       x1="-51.786404"
       y1="53.514328"
       x2="-51.786404"
       y2="3.6336823"
       id="linearGradient6419"
       xlink:href="#linearGradient3104-8-8-97-4-6-11-5-5-1-0-5"
       gradientUnits="userSpaceOnUse"
       gradientTransform="matrix(1.0563766,0,0,1.0770552,69.975816,-2.5296499)" />
    <linearGradient
       id="linearGradient3104-8-8-97-4-6-11-5-5-1-0-5">
      <stop
         id="stop3106-5-4-3-5-0-2-1-0-1-2-7"
         style="stop-color:#000000;stop-opacity:0.32173914"
         offset="0" />
      <stop
         id="stop3108-4-3-7-8-2-0-7-9-4-9-4-5"
         style="stop-color:#000000;stop-opacity:0.27826086"
         offset="1" />
    </linearGradient>
    <linearGradient
       id="linearGradient6404-7-5-7">
      <stop
         id="stop6406-1-8-2"
         style="stop-color:#f9f9f9;stop-opacity:1"
         offset="0" />
      <stop
         id="stop6408-9-6-4"
         style="stop-color:#c9c9c9;stop-opacity:1"
         offset="1" />
    </linearGradient>
    <linearGradient
       x1="62.988873"
       y1="14.090554"
       x2="62.988873"
       y2="16.997795"
       id="linearGradient25816"
       xlink:href="#linearGradient6404-7-5-7"
       gradientUnits="userSpaceOnUse"
       gradientTransform="matrix(1.3135526,0,0,1.2900554,-55.484951,-1.2218599)" />
    <linearGradient
       id="linearGradient5606">
      <stop
         id="stop5608"
         style="stop-color:#000000;stop-opacity:1"
         offset="0" />
    </linearGradient>
    <filter
       color-interpolation-filters="sRGB"
       id="filter7554-3">
      <feBlend
         in2="BackgroundImage"
         mode="darken"
         id="feBlend7556-3" />
    </filter>
    <linearGradient
       id="linearGradient5606-3">
      <stop
         id="stop5608-2"
         style="stop-color:#000000;stop-opacity:1"
         offset="0" />
    </linearGradient>
  </defs>
  <metadata
     id="metadata25823">
    <rdf:RDF>
      <cc:Work
         rdf:about="">
        <dc:format>image/svg+xml</dc:format>
        <dc:type
           rdf:resource="http://purl.org/dc/dcmitype/StillImage" />
        <dc:title />
      </cc:Work>
    </rdf:RDF>
  </metadata>
  <g
     id="layer1">
    <path
       d="m 7.5006657,10 c -0.277,0 -0.5,0.223 -0.5,0.5 l 0,3.5 -2.5,0 c -0.277,0 -0.5,0.223 -0.5,0.5 l 0,9.5 c 0,0.277 0.223,0.5 0.5,0.5 l 55.0000003,0 c 0.277,0 0.5,-0.223 0.5,-0.5 l 0,-9.5 c 0,-0.277 -0.223,-0.5 -0.5,-0.5 l -31.5,0 0,-3.5 c 0,-0.277 -0.223,-0.5 -0.5,-0.5 L 7.5006657,10 z"
       id="use6315"
       style="color:#000000;fill:url(#linearGradient25816);fill-opacity:1;fill-rule:nonzero;stroke:none;stroke-width:1.00000012;marker:none;visibility:visible;display:inline;overflow:visible;enable-background:accumulate" />
    <path
       d="m 8.0006657,9.5001611 c -0.91501,0.0102 -1.5,0.45618 -1.5,1.3332889 l 0,2.66655 -1.506,0 c -0.99492,0 -1.494,0.47358 -1.494,1.34217 0.0456,13.71958 0,14.49301 0,15.65783 1.90283,0 56.9999903,-4.9328 56.9999903,-7.05611 l 0,-8.44389 c 0,-1.00007 -0.49994,-1.5 -1.49999,-1.5 l -30.5,0 0,-2.66655 c 0,-0.8771089 -0.22453,-1.3435089 -1.13954,-1.3332889 z"
       id="use6317"
       style="opacity:0.8;color:#000000;fill:none;stroke:url(#linearGradient6419);stroke-width:1;stroke-linecap:butt;stroke-linejoin:miter;stroke-miterlimit:4;stroke-opacity:1;stroke-dasharray:none;stroke-dashoffset:0;marker:none;visibility:visible;display:inline;overflow:visible;enable-background:accumulate" />
    <path
       d="m 7.5006657,10.5 0,4 -3,0 0,10 55.0000003,0 0,-10 -32,0 0,-4 -20.0000003,0 z"
       id="use6319"
       style="color:#000000;fill:none;stroke:url(#linearGradient6415);stroke-width:0.99999976;stroke-linecap:round;stroke-linejoin:round;stroke-miterlimit:4;stroke-opacity:1;stroke-dasharray:none;stroke-dashoffset:0;marker:none;visibility:visible;display:inline;overflow:visible;enable-background:accumulate" />
    <path
       d="m 58.000666,52.99993 c 0,0 0,7.99991 0,7.99991 2.06824,0.0151 5,-1.79238 5,-4.00047 0,-2.2081 -2.308,-3.99944 -5,-3.99944 z"
       id="use6321"
       style="opacity:0.3;fill:url(#radialGradient6411);fill-opacity:1;fill-rule:nonzero;stroke:none;stroke-width:1;marker:none;visibility:visible;display:inline;overflow:visible" />
    <rect
       width="52"
       height="8"
       x="6.0006671"
       y="53"
       id="use6323"
       style="opacity:0.3;fill:url(#linearGradient6407);fill-opacity:1;fill-rule:nonzero;stroke:none;stroke-width:1;marker:none;visibility:visible;display:inline;overflow:visible" />
    <path
       d="m 6.0006657,52.99993 c 0,0 0,7.99991 0,7.99991 -2.06825,0.0151 -5,-1.79238 -5,-4.00047 0,-2.2081 2.308,-3.99944 5,-3.99944 z"
       id="use6325"
       style="opacity:0.3;fill:url(#radialGradient6403);fill-opacity:1;fill-rule:nonzero;stroke:none;stroke-width:1;marker:none;visibility:visible;display:inline;overflow:visible" />
    <path
       d="m 2.5042057,20.53211 c -1.44043,0.16346 -0.87122,1.85289 -0.98607,2.8029 0.5271,11.19318 1.25951,21.80885 1.78336,33.0021 0,1.18996 1.19486,1.13653 1.86516,1.13653 0,0 36.7742103,0 54.4905103,0 1.46281,-0.14093 0.85463,-1.86024 1.0604,-2.8442 0.52711,-11.19317 1.25992,-21.56889 1.78376,-32.76214 0.0178,-0.7521 -0.50074,-1.33519 -1.21534,-1.33519 0,0 -39.86255,0 -58.7817803,0 z"
       id="use6327"
       style="color:#000000;fill:url(#linearGradient6397);fill-opacity:1;fill-rule:nonzero;stroke:none;stroke-width:0.99999982;marker:none;visibility:visible;display:inline;overflow:visible;enable-background:accumulate" />
    <path
       d="m 2.4097557,20 59.1818103,5.3e-4 c 0.85499,0 1.4091,0.5839 1.4091,1.30984 l -1.6775,35.37929 c 0,0.72593 -0.68831,1.31034 -1.54329,1.31034 L 4.2214357,58 c -0.85498,0 -1.54329,-0.58441 -1.54329,-1.31034 l -1.67748,-35.37931 c 0,-0.72594 0.5541,-1.31035 1.40909,-1.31035 z"
       id="use6329"
       style="opacity:0.4;fill:url(#linearGradient6393);fill-opacity:1;stroke:none" />
    <path
       d="M 61.069096,21.5 3.9511557,21.5313 c -1.70924,0 -1.43419,0.0338 -1.43419,1.07579 l 1.62114,32.91358 c 0.0163,0.94321 -0.0656,0.9793 1.0726,0.9793 0,0 36.7779503,0 54.4396603,0 0.53983,-11.58225 1.25805,-22.68226 1.81479,-34.32182 0.0519,-0.55489 0.0134,-0.67818 -0.39606,-0.67818 z"
       id="use6331"
       style="opacity:0.5;color:#000000;fill:none;stroke:url(#linearGradient6389);stroke-width:0.99999988;stroke-linecap:round;stroke-linejoin:round;stroke-miterlimit:4;stroke-opacity:1;stroke-dasharray:none;stroke-dashoffset:0;marker:none;visibility:visible;display:inline;overflow:visible;enable-background:accumulate" />
    <path
       d="m 2.5042057,20.53211 c -1.44043,0.16346 -0.87122,1.85289 -0.98607,2.8029 0.5271,11.19318 1.25951,21.80885 1.78336,33.0021 0,1.18996 1.19486,1.13653 1.86516,1.13653 0,0 36.7742103,0 54.4905103,0 1.46281,-0.14093 0.85463,-1.86024 1.0604,-2.8442 0.52711,-11.19317 1.25992,-21.56889 1.78376,-32.76214 0.0178,-0.7521 -0.50074,-1.33519 -1.21534,-1.33519 0,0 -39.86255,0 -58.7817803,0 z"
       id="use6327-4"
       style="opacity:0.3;color:#000000;fill:none;stroke:#000000;stroke-width:0.99999982;stroke-linecap:round;stroke-linejoin:round;stroke-miterlimit:4;stroke-opacity:1;stroke-dasharray:none;stroke-dashoffset:0;marker:none;visibility:visible;display:inline;overflow:visible;enable-background:accumulate" />
    <g
       transform="matrix(1.3803922,0,0,1.3803922,-1002.6764,297.09283)"
       id="layer9"
       style="color:#000000;fill:#175785;fill-opacity:0.5521628;fill-rule:nonzero;stroke:none;stroke-width:0.81919247;marker:none;visibility:visible;display:inline;overflow:visible;enable-background:accumulate" />
    <g
       transform="matrix(1.3803922,0,0,1.3803922,-1002.6764,297.09283)"
       id="layer10"
       style="color:#000000;fill:#175785;fill-opacity:0.5521628;fill-rule:nonzero;stroke:none;stroke-width:0.81919247;marker:none;visibility:visible;display:inline;overflow:visible;filter:url(#filter7554-3);enable-background:accumulate" />
    <g
       transform="matrix(1.3803922,0,0,1.3803922,-670.00164,-554.60916)"
       id="layer1-0"
       style="color:#000000;fill:#175785;fill-opacity:0.5521628;fill-rule:nonzero;stroke:none;stroke-width:0.81919247;marker:none;visibility:visible;display:inline;overflow:visible;enable-background:accumulate" />
    <g
       transform="matrix(1.3803922,0,0,1.3803922,-1002.6764,297.09283)"
       id="layer14"
       style="color:#000000;fill:#175785;fill-opacity:0.5521628;fill-rule:nonzero;stroke:none;stroke-width:0.81919247;marker:none;visibility:visible;display:inline;overflow:visible;enable-background:accumulate" />
    <g
       transform="matrix(1.3803922,0,0,1.3803922,-457.68607,-1301.5635)"
       id="g24872-6-2"
       style="color:#000000;fill:#175785;fill-opacity:0.5521628;fill-rule:nonzero;stroke:none;stroke-width:0.81919247;marker:none;visibility:visible;display:inline;overflow:visible;enable-background:accumulate" />
    <path
       d="m 38,29 c -2.209139,0 -4,1.790861 -4,4 0,0.300443 0.06221,0.593483 0.125,0.875 l -5.4375,3.15625 C 27.978103,36.390065 27.031528,36 26,36 c -2.209139,0 -4,1.790861 -4,4 0,2.209139 1.790861,4 4,4 1.031528,0 1.978103,-0.390065 2.6875,-1.03125 L 34.125,46.125 C 34.06221,46.406517 34,46.699557 34,47 c 0,2.209139 1.790861,4 4,4 2.209139,0 4,-1.790861 4,-4 0,-2.209139 -1.790861,-4 -4,-4 -0.999485,0 -1.923869,0.362707 -2.625,0.96875 L 29.90625,40.8125 C 29.95953,40.55211 30,40.276142 30,40 30,39.723858 29.95953,39.44789 29.90625,39.1875 L 35.375,36.03125 C 36.076131,36.637293 37.000515,37 38,37 c 2.209139,0 4,-1.790861 4,-4 0,-2.209139 -1.790861,-4 -4,-4 z"
       id="path18808"
       style="opacity:0.3;color:#000000;fill:#ffffff;fill-opacity:1;fill-rule:nonzero;stroke:none;stroke-width:2.55777764;marker:none;visibility:visible;display:inline;overflow:visible;enable-background:accumulate" />
    <g
       transform="matrix(1.3803922,0,0,1.3803922,-1002.6764,297.09283)"
       id="g71291"
       style="color:#000000;fill:#175785;fill-opacity:0.5521628;fill-rule:nonzero;stroke:none;stroke-width:0.81919247;marker:none;visibility:visible;display:inline;overflow:visible;enable-background:accumulate" />
    <g
       transform="matrix(1.3803922,0,0,1.3803922,-670.00164,-347.55033)"
       id="layer2"
       style="color:#000000;fill:#175785;fill-opacity:0.5521628;fill-rule:nonzero;stroke:none;stroke-width:0.81919247;marker:none;visibility:visible;display:inline;overflow:visible;enable-background:accumulate" />
    <g
       transform="matrix(1.3803922,0,0,1.3803922,-670.00164,-347.55033)"
       id="g6058"
       style="color:#000000;fill:#175785;fill-opacity:0.5521628;fill-rule:nonzero;stroke:none;stroke-width:0.81919247;marker:none;visibility:visible;display:inline;overflow:visible;enable-background:accumulate" />
    <g
       transform="matrix(1.3803922,0,0,1.3803922,-1002.6764,297.09283)"
       id="layer12"
       style="color:#000000;fill:#175785;fill-opacity:0.5521628;fill-rule:nonzero;stroke:none;stroke-width:0.81919247;marker:none;visibility:visible;display:inline;overflow:visible;enable-background:accumulate" />
    <path
       d="m 38,28 c -2.209139,0 -4,1.790861 -4,4 0,0.300443 0.06221,0.593483 0.125,0.875 l -5.4375,3.15625 C 27.978103,35.390065 27.031528,35 26,35 c -2.209139,0 -4,1.790861 -4,4 0,2.209139 1.790861,4 4,4 1.031528,0 1.978103,-0.390065 2.6875,-1.03125 L 34.125,45.125 C 34.06221,45.406517 34,45.699557 34,46 c 0,2.209139 1.790861,4 4,4 2.209139,0 4,-1.790861 4,-4 0,-2.209139 -1.790861,-4 -4,-4 -0.999485,0 -1.923869,0.362707 -2.625,0.96875 L 29.90625,39.8125 C 29.95953,39.55211 30,39.276142 30,39 30,38.723858 29.95953,38.44789 29.90625,38.1875 L 35.375,35.03125 C 36.076131,35.637293 37.000515,36 38,36 c 2.209139,0 4,-1.790861 4,-4 0,-2.209139 -1.790861,-4 -4,-4 z"
       id="path18808-8"
       style="color:#000000;fill:#175785;fill-opacity:0.5521628;fill-rule:nonzero;stroke:none;stroke-width:0.54325396;marker:none;visibility:visible;display:inline;overflow:visible;enable-background:accumulate" />
  </g>
</svg>

<svg xmlns="http://www.w3.org/2000/svg" xmlns:xlink="http://www.w3.org/1999/xlink" viewBox="0 0 64 64"><defs><linearGradient x1="97.539" y1="16.962" x2="97.539" y2="44.261" id="q" xlink:href="#a" gradientUnits="userSpaceOnUse" gradientTransform="matrix(1.32103 0 0 1.26798 -70.73 .174)"/><linearGradient id="a"><stop offset="0" stop-color="#fff"/><stop offset=".022" stop-color="#fff" stop-opacity=".235"/><stop offset=".979" stop-color="#fff" stop-opacity=".157"/><stop offset="1" stop-color="#fff" stop-opacity=".392"/></linearGradient><linearGradient x1="22.935" y1="49.629" x2="22.809" y2="36.658" id="p" xlink:href="#b" gradientUnits="userSpaceOnUse" gradientTransform="matrix(1.5433 0 0 1.31034 -5.038 .345)"/><linearGradient id="b"><stop offset="0" stop-color="#0a0a0a" stop-opacity=".498"/><stop offset="1" stop-color="#0a0a0a" stop-opacity="0"/></linearGradient><linearGradient x1="-91" y1="44" x2="-91" y2="119.06" id="o" xlink:href="#c" gradientUnits="userSpaceOnUse" gradientTransform="matrix(.50413 0 0 .49333 73.844 -1.453)"/><linearGradient id="c"><stop offset="0" stop-color="#b4cee1"/><stop offset="1" stop-color="#5d9fcd"/></linearGradient><radialGradient cx="605.714" cy="486.648" r="117.143" fx="605.714" fy="486.648" id="n" xlink:href="#d" gradientUnits="userSpaceOnUse" gradientTransform="matrix(-.04016 0 0 .03294 30.205 40.92)"/><linearGradient id="d"><stop offset="0"/><stop offset="1" stop-opacity="0"/></linearGradient><linearGradient x1="302.857" y1="366.648" x2="302.857" y2="609.505" id="m" xlink:href="#e" gradientUnits="userSpaceOnUse" gradientTransform="matrix(.1077 0 0 .03294 -6.922 40.922)"/><linearGradient id="e"><stop offset="0" stop-opacity="0"/><stop offset=".5"/><stop offset="1" stop-opacity="0"/></linearGradient><radialGradient cx="605.714" cy="486.648" r="117.143" fx="605.714" fy="486.648" id="l" xlink:href="#d" gradientUnits="userSpaceOnUse" gradientTransform="matrix(.04016 0 0 .03294 33.797 40.92)"/><linearGradient x1="97.539" y1="8.81" x2="97.539" y2="44.261" id="k" xlink:href="#f" gradientUnits="userSpaceOnUse" gradientTransform="matrix(1.27497 0 0 1.2183 -67.16 -.34)"/><linearGradient id="f"><stop offset="0" stop-color="#fff"/><stop offset=".109" stop-color="#fff" stop-opacity=".235"/><stop offset=".979" stop-color="#fff" stop-opacity=".157"/><stop offset="1" stop-color="#fff" stop-opacity=".392"/></linearGradient><linearGradient x1="-51.786" y1="53.514" x2="-51.786" y2="3.634" id="j" xlink:href="#g" gradientUnits="userSpaceOnUse" gradientTransform="matrix(1.05638 0 0 1.07706 69.976 -2.53)"/><linearGradient id="g"><stop offset="0" stop-opacity=".322"/><stop offset="1" stop-opacity=".278"/></linearGradient><linearGradient id="h"><stop offset="0" stop-color="#f9f9f9"/><stop offset="1" stop-color="#c9c9c9"/></linearGradient><linearGradient x1="62.989" y1="14.091" x2="62.989" y2="16.998" id="i" xlink:href="#h" gradientUnits="userSpaceOnUse" gradientTransform="matrix(1.31355 0 0 1.29006 -55.485 -1.222)"/></defs><path d="M7.5 10a.5.5 0 0 0-.5.5V14H4.5a.5.5 0 0 0-.5.5V24a.5.5 0 0 0 .5.5h55a.5.5 0 0 0 .5-.5v-9.5a.5.5 0 0 0-.5-.5H28v-3.5a.5.5 0 0 0-.5-.5h-20z" color="#000" fill="url(#i)" overflow="visible"/><path d="M8 9.5c-.914.01-1.5.456-1.5 1.333V13.5H4.996C4 13.5 3.5 13.974 3.5 14.842c.046 13.72 0 14.493 0 15.658 1.903 0 57-4.933 57-7.056V15c0-1-.5-1.5-1.5-1.5H28.5v-2.667c0-.877-.224-1.343-1.14-1.333z" opacity=".8" color="#000" fill="none" stroke="url(#j)" overflow="visible"/><path d="M7.5 10.5v4h-3v10h55v-10h-32v-4h-20z" color="#000" fill="none" stroke="url(#k)" stroke-linecap="round" stroke-linejoin="round" overflow="visible"/><path d="M58 53v8c2.07.015 5-1.793 5-4 0-2.21-2.307-4-5-4z" opacity=".3" fill="url(#l)" overflow="visible"/><path opacity=".3" fill="url(#m)" overflow="visible" d="M6 53h52v8H6z"/><path d="M6 53v8c-2.068.015-5-1.793-5-4 0-2.21 2.31-4 5-4z" opacity=".3" fill="url(#n)" overflow="visible"/><path d="M2.504 20.532c-1.44.164-.87 1.853-.986 2.803.527 11.193 1.26 21.81 1.783 33.002 0 1.19 1.2 1.137 1.87 1.137h54.49c1.47-.14.86-1.86 1.06-2.845.53-11.2 1.26-21.57 1.79-32.77.02-.75-.5-1.337-1.214-1.337H2.506z" color="#000" fill="url(#o)" overflow="visible"/><path d="M2.41 20h59.182c.855 0 1.41.584 1.41 1.31l-1.68 35.38c0 .726-.687 1.31-1.542 1.31H4.22c-.854 0-1.542-.584-1.542-1.31L1 21.31c0-.726.555-1.31 1.41-1.31z" opacity=".4" fill="url(#p)"/><path d="M61.07 21.5l-57.12.03c-1.708 0-1.433.035-1.433 1.077l1.62 32.914c.017.95-.064.98 1.074.98h54.44c.54-11.58 1.26-22.68 1.82-34.32.05-.55.018-.68-.392-.68z" opacity=".5" color="#000" fill="none" stroke="url(#q)" stroke-linecap="round" stroke-linejoin="round" overflow="visible"/><path d="M2.504 20.532c-1.44.164-.87 1.853-.986 2.803.527 11.193 1.26 21.81 1.783 33.002 0 1.19 1.2 1.137 1.87 1.137h54.49c1.47-.14.86-1.86 1.06-2.845.53-11.2 1.26-21.57 1.79-32.77.02-.75-.5-1.337-1.214-1.337H2.506z" opacity=".3" color="#000" fill="none" stroke="#000" stroke-linecap="round" stroke-linejoin="round" overflow="visible"/><path d="M38 29a4 4 0 0 0-4 4c0 .3.062.593.125.875l-5.438 3.156A4 4 0 0 0 26 36a4 4 0 0 0 0 8 4 4 0 0 0 2.688-1.03l5.437 3.155c-.063.282-.125.575-.125.875a4 4 0 1 0 4-4c-1 0-1.924.363-2.625.97l-5.47-3.157c.055-.26.095-.537.095-.813 0-.276-.04-.552-.094-.813l5.47-3.156A4 4 0 0 0 38 37a4 4 0 0 0 0-8z" opacity=".3" color="#000" fill="#fff" overflow="visible"/><path d="M38 28a4 4 0 0 0-4 4c0 .3.062.593.125.875l-5.438 3.156A4 4 0 0 0 26 35a4 4 0 0 0 0 8 4 4 0 0 0 2.688-1.03l5.437 3.155c-.063.282-.125.575-.125.875a4 4 0 1 0 4-4c-1 0-1.924.363-2.625.97l-5.47-3.157c.055-.26.095-.537.095-.813 0-.276-.04-.552-.094-.813l5.47-3.156A4 4 0 0 0 38 36a4 4 0 0 0 0-8z" color="#000" fill="#175785" fill-opacity=".552" overflow="visible"/></svg>
